X:26
T:Si l'amour. [FJ26]
S:Festin joyeux.  Music page 13.
Z:transcribed by Eric Conrad, 2021.
N:NB The meter is given simply as "2"
N:NB In the MS, the G is the bottom line of the staff (lines: GBdfa)
N:NB MS has a four-dot repeat in the middle, with no marks at start or end.
N:NB Repeat marks were added at beginning and end.
N:NB The plus signs seem to indicate some kind of roll or trill.
M:2/2
L:1/4
% K:C clef=treble1 % G is on bottom line of the staff
K:C % no sharps or flats in MS signature, ending on C
|: c | de fd | e>f e :: e | e>d ef | "^+"d2 de | dc Bc |
d/c/d/e/ dc | d>e fe | "^+"d2 de | d>c "^+"c>B | c3 :|


